X: 10145
T: Din Tarrant's
R: polka
M: 2/4
K: Dmajor
B/c/2|:dB fB|dB fe/d/|cA eA|
cee2|fb ba|fb ba|f2f>e|dB B2:|
|:af df|A/B/c/d/ e2|g/f/e/d/ cA|Bc d2|af df|
A/B/c/d/ e2|1 g/f/e/d/ cA|Bc d2:|2 g/f/e/d/ cA|GE D2||

